X:1
T:Title
%%score 1 2
L:1/8
Q:1/4=85
M:6/8
K:C
V:1 treble nm="Grand Piano, Soprano"
V:2 bass nm="Choir Pad, Beautiful City"
V:1
 [EG]>[EG][EG] [Ec]2 [CE] | [B,D][CE][DF] [CE]3 | [CA]>[FA][FA] [EG]2 [Ec] | [DB][Ec][CA] [B,G]3 | %4
w: By~Joseph~Lincoln~Hall * * * *||||
 [Fd]>[Fd][Fd] [Fd][FA][FB] | [Ed][Ec][_EA] [=EG]3 | [FA]>[FA][FA] [EG][Ec][CE] | %7
w: |||
 [B,G][CG][DF] [CE]3 | [EG]>[EG][EG] [EG] [Ec]2 | [FA]>[FA][FA] [FA] [Fc]2 | %10
w: |||
 [Fd]>[Fd][Fd] [Fd][Ge][Fd] | [Ec][_EB][EA] [=EG]3 | [EG]>[EG][EG] [EG] [Ec]2 | %13
w: |||
 [FA]>[FA][FA] [^FA][Fd][Fc] | [FB][FB][Ec] [Fd][Ge][Fd] | [Ec]6- | [Ec]3 z3 |] %17
w: ||||
V:2
 [C,C]>[C,C][C,C] [C,G,]2 [C,G,] | [G,,G,][G,,G,][G,,G,] [C,G,]3 | F,>[F,C][F,C] [C,C]2 [C,G,] | %3
 [D,G,][D,G,][D,^F,] [G,,G,]3 | [G,B,]>[G,B,][G,B,] [G,B,][G,B,][G,B,] | %5
 [C,G,][C,G,][C,^F,] [C,G,]3 | F,>[F,C][F,C] [C,C][C,G,][C,G,] | [G,,G,][A,,G,][B,,G,] [C,G,]3 | %8
 [C,C]>[C,C][C,C] [C,C] [C,G,]2 | F,>[F,C][F,C] [F,C] [A,C]2 | %10
 [G,B,]>[G,B,][G,B,] [G,B,][G,B,][G,B,] | [C,G,][C,^F,][C,F,] [C,G,]3 | %12
 [C,C]>[C,C][C,C] [C,C] [C,G,]2 | F,>[F,C][F,C] [D,D][D,A,][D,D] | %14
 [G,D][G,D][G,C] [G,B,][G,B,][G,B,] | [C,C]6- | [C,C]3 z3 |] %17

